!!!COM: Bach, Johann Sebastian
!!!OPR: Die Kunst der Fuge
!!!XEN: The Art of Fugue
!!!OTL:
!!!OMV: 21
!!!SCT: BWV 1080
!!!SCA: Thematisch-systematisches Verzeichnis der musikalischen Werke Johann Sebastian Bach: Bach-Werke-Verzeichnis (Schmieder)
!!!YOR: Bach Gesellschaft Edition xxv,1
!!!EED: Frances Bennion
!!!ENC: Frances Bennion
!!!CDT: 1685/3//-1750/7/28/
!!!OCY: Deutschland
!!!YEC: Copyright (c) 1994, 2000 Center for Computer Assisted Research in the Humanities
!!!YEM: Rights to all derivative editions reserved.
!!!YEM: Refer to licensing agreement for further details.
!!!YEN: United States of America
**kern	**kern	**kern	**kern
*k[b-]	*k[b-]	*k[b-]	*k[b-]
*d:	*d:	*d:	*d:
*clefG	*clefG	*clefC	*clefC
*M4/4	*M4/4	*M4/4	*M4/4
=1	=1	=1	=1
1r	1r	1r	2r
.	.	.	2D
=2	=2	=2	=2
1r	1r	1r	2.A
.	.	.	4G
=3	=3	=3	=3
1r	1r	1r	1F
=4	=4	=4	=4
1r	1r	1r	1G
=5	=5	=5	=5
1r	1r	1r	1A
=6	=6	=6	=6
1r	1r	2r	2D
.	.	2A	[2F
=7	=7	=7	=7
1r	1r	2.d	4F]
.	.	.	4BB
.	.	.	2E
.	.	4d	.
=8	=8	=8	=8
1r	1r	1c	4AA
.	.	.	4E
.	.	.	4A
.	.	.	4G
=9	=9	=9	=9
1r	1r	1d	4F
.	.	.	4D
.	.	.	4B-
.	.	.	4A
=10	=10	=10	=10
1r	1r	1e	4G
.	.	.	4E
.	.	.	4C#
.	.	.	8D
.	.	.	8E
=11	=11	=11	=11
1r	2r	2A	4F
.	.	.	4D
.	2d	[2d	4C
.	.	.	4BB-
=12	=12	=12	=12
1r	2.a	2d]	4AA
.	.	.	4GG
.	.	2c#	2AA
.	4g	.	.
=13	=13	=13	=13
1r	1f	4d	2.DD
.	.	4A	.
.	.	[2B-	.
.	.	.	4D
=14	=14	=14	=14
1r	1g	4B-]	2.E
.	.	4G	.
.	.	[2c	.
.	.	.	8D
.	.	.	8E
=15	=15	=15	=15
1r	1a	4c]	2F
.	.	4A	.
.	.	4d	2F#
.	.	[4c	.
=16	=16	=16	=16
2r	[1d	4c]	2.G
.	.	4B-	.
2a	.	[2A	.
.	.	.	8F#
.	.	.	8E
=17	=17	=17	=17
2.dd	2d]	4A]	2F#
.	.	8B	.
.	.	8c	.
.	[2e	2B	2G#
4dd	.	.	.
=18	=18	=18	=18
1cc	4e]	2.A	2A
.	4c	.	.
.	[2f	.	2r
.	.	4A	.
=19	=19	=19	=19
1dd	4f]	2.B-	1r
.	4d	.	.
.	[2g	.	.
.	.	4B	.
=20	=20	=20	=20
1ee	4g]	2c	1r
.	4e	.	.
.	4a	2c#	.
.	[4g	.	.
=21	=21	=21	=21
2.a	4g]	4d	2r
.	8f	4A	.
.	8e	.	.
.	2f	2d	2D
4b	.	.	.
=22	=22	=22	=22
2.cc	4e	2c	2.AA
.	8d	.	.
.	8e	.	.
.	[2f	2r	.
4dd	.	.	4BB
=23	=23	=23	=23
2g	4f]	1r	1C
.	2e-	.	.
2f#	.	.	.
.	[4d	.	.
=24	=24	=24	=24
2g	8d]	2r	1BB-
.	8e	.	.
.	2f	.	.
2g#	.	2D	.
.	8e	.	.
.	8d	.	.
=25	=25	=25	=25
8a	4c	2.A	1AA
4cc	.	.	.
.	4d	.	.
8b	.	.	.
[2cc	2e	.	.
.	.	4G	.
=26	=26	=26	=26
4cc]	2.d	1F	1D
8b	.	.	.
8a	.	.	.
2b	.	.	.
.	8e	.	.
.	8f	.	.
=27	=27	=27	=27
4cc	4e	1G	4C
4b-	4d	.	4D
4a	[2c	.	[2E-
4g	.	.	.
=28	=28	=28	=28
2.f#	4c]	1A	4E-]
.	8d	.	4AA
.	8e-	.	.
.	[2d	.	4D
8g	.	.	4C
8a	.	.	.
=29	=29	=29	=29
2.g	4d]	2.D	2BB
.	8e	.	.
.	8f#	.	.
.	[2g	.	[2BB-
8a	.	8C	.
8b-	.	8D	.
=30	=30	=30	=30
[1cc	4g]	4E	2BB-]
.	8f#	8D	.
.	8g	8E	.
.	2a	4F#	2AA
.	.	8E	.
.	.	8F#	.
=31	=31	=31	=31
4cc]	2.d	4G	2GG
8b-	.	4D	.
8a	.	.	.
2b-	.	2G	4r
.	4e	.	4GG
=32	=32	=32	=32
4a	1f	4F	2.D
8b	.	8G	.
8cc#	.	8A	.
[2dd	.	[2B-	.
.	.	.	8E
.	.	.	8F
=33	=33	=33	=33
4dd]	1e	2B-]	2.G
8ee	.	.	.
8dd	.	.	.
2cc#	.	[2A	.
.	.	.	8F#
.	.	.	8E
=34	=34	=34	=34
4dd	1d	2A]	4F#
2cc	.	.	4D
.	.	4G	[2G
4b	.	8g	.
.	.	8f	.
=35	=35	=35	=35
2cc#	[1a	4e	2G]
.	.	8d	.
.	.	8e	.
[2dd	.	2f	4F
.	.	.	4G
=36	=36	=36	=36
2dd]	2.a]	4e	2A
.	.	4d	.
2cc#	.	2e	2AA
.	[4g	.	.
=37	=37	=37	=37
2dd	4g]	4d	2.D
.	8f	8A	.
.	8e	8G	.
2a	2f	[2A	.
.	.	.	4C
=38	=38	=38	=38
2.dd	2r	4A]	4BB-
.	.	8G	4AA
.	.	8F	.
.	2d	[2G	2BB-
4dd	.	.	.
=39	=39	=39	=39
1cc	2.a	4G]	1AA
.	.	4C	.
.	.	4F	.
.	4g	4E	.
=40	=40	=40	=40
1dd	1f	4D	4BB-
.	.	4A	4F
.	.	4d	4B-
.	.	4c	4A
=41	=41	=41	=41
1ee	1g	4B-	4G
.	.	8A	4F
.	.	8G	.
.	.	[2c	4E
.	.	.	8D
.	.	.	8C
=42	=42	=42	=42
4a	1a	4c]	2F
4b	.	4d	.
[2cc	.	8e-	2F#
.	.	8c	.
.	.	8B	.
.	.	8A	.
=43	=43	=43	=43
2.cc]	4d	[1G	2G
.	4e	.	.
.	[2f	.	2GG
4b	.	.	.
=44	=44	=44	=44
4cc	4f]	1G_	2.C
4g	8e	.	.
.	8d	.	.
[2cc	[2e	.	.
.	.	.	4BB-
=45	=45	=45	=45
2.cc]	4e]	4G]	1AA
.	4c	8F	.
.	.	8G	.
.	[2f	[2A	.
4a	.	.	.
=46	=46	=46	=46
[1dd	4f]	4A]	1BB-
.	4d	8G	.
.	.	8A	.
.	4g	[2B-	.
.	4f	.	.
=47	=47	=47	=47
4dd]	4e	2B-]	1C
4g	4d	.	.
4cc	[2e-	4A	.
4b-	.	4G	.
=48	=48	=48	=48
4a	2e-]	2F	2FF
4g	.	.	.
[2a	4d	2r	2FF#
.	4c	.	.
=49	=49	=49	=49
2a]	4B	1r	4GG
.	4A	.	4FF
4g	[2B-	.	4EE
4f	.	.	4DD
=50	=50	=50	=50
4e	2B-]	1r	4CC
4d	.	.	4GG
[2e-	4A	.	4C
.	4G	.	4BB-
=51	=51	=51	=51
2e-]	4F#	1r	4AA
.	4A	.	4GG
[2d	4d	.	4FF#
.	4c	.	4DD
=52	=52	=52	=52
2.d]	4B-	1r	4GG
.	4A	.	4D
.	2B-	.	4G
4d	.	.	4F
=53	=53	=53	=53
4g	2B	1r	4E
4f	.	.	4D
4e	[2c	.	4C
4g	.	.	4BB-
=54	=54	=54	=54
2.cc	4c]	1r	4AA
.	4e	.	4C
.	[2a	.	4F
4cc	.	.	4E
=55	=55	=55	=55
4ff	4a]	2r	4D
4ee	4g	.	4E
4dd	4.f	2d	[2F
4cc	.	.	.
.	8e	.	.
=56	=56	=56	=56
2b	4d	2.G	4F]
.	8e	.	2E
.	8f	.	.
2cc#	2g	.	.
.	.	4A	4E-
=57	=57	=57	=57
2.dd	4f#	1B-	4D
.	8g	.	8E
.	8a	.	8F#
.	4b-	.	[2G
8cc#	8a	.	.
8dd	8b-	.	.
=58	=58	=58	=58
4ee	2.cc	1A	4G]
2aa	.	.	4C
.	.	.	[2F
[4dd	8b-	.	.
.	8a	.	.
=59	=59	=59	=59
4dd]	2.b-	1G	4F]
2gg	.	.	8E-
.	.	.	8D
.	.	.	2E-
[4cc	8a	.	.
.	8g	.	.
=60	=60	=60	=60
4cc]	2f#	2.d	2D
2b	.	.	.
.	[2g	.	2r
4b-	.	8e	.
.	.	8d	.
=61	=61	=61	=61
2a	4g]	4c#	2r
.	8f	4A	.
.	8e	.	.
2r	4f	[2d	2D
.	8g	.	.
.	8f	.	.
=62	=62	=62	=62
2r	2.e	4d]	2.A
.	.	8c#	.
.	.	8B	.
2a	.	4c#	.
.	8f	8d	4G
.	8g	8e	.
=63	=63	=63	=63
2.dd	4a	2d	1F
.	4g	.	.
.	4f	2A	.
4cc	4e-	.	.
=64	=64	=64	=64
1b-	4d	4r	1G
.	8g	4B-	.
.	8f#	.	.
.	[2g	4e-	.
.	.	4d	.
=65	=65	=65	=65
1cc	2g]	4c	1A
.	.	8d	.
.	.	8e-	.
.	[2f	4d	.
.	.	4c	.
=66	=66	=66	=66
1dd	4f]	4B	1D
.	8g	4A	.
.	8a	.	.
.	4g	[2B-	.
.	4f	.	.
=67	=67	=67	=67
2g	4e	2B-]	[1C
.	4c	.	.
4a	[2f	2A	.
4b-	.	.	.
=68	=68	=68	=68
4cc	4f]	4G	1C]
4g	8e	4B-	.
.	8d	.	.
4cc	[2e-	4A	.
4b-	.	4G	.
=69	=69	=69	=69
4a	2e-]	2F	2.D
4f	.	.	.
[2b-	2d	2r	.
.	.	.	4E-
=70	=70	=70	=70
2b-]	1c	1r	4F
.	.	.	4C
2a	.	.	4F
.	.	.	4E-
=71	=71	=71	=71
2b-	1f	1r	4D
.	.	.	8C
.	.	.	8BB-
[2a-	.	.	4C
.	.	.	4D
=72	=72	=72	=72
4a-]	2.B-	2r	4E-
8g	.	.	4BB-
8f	.	.	.
4g	.	2B-	[2E-
4a	4c	.	.
=73	=73	=73	=73
4b-	1d	2.F	4E-]
4f	.	.	8D
.	.	.	8C
2b-	.	.	4D
.	.	4G	4E
=74	=74	=74	=74
8a	1c	1A	2F
8b-	.	.	.
8cc	.	.	.
8dd	.	.	.
8ee-	.	.	4C
8a	.	.	.
8g	.	.	4D
8f#	.	.	.
=75	=75	=75	=75
2.g	1B-	1G	4E-
.	.	.	4BB-
.	.	.	[2E-
8a	.	.	.
8b-	.	.	.
=76	=76	=76	=76
4a	2.f	1F	4E-]
8b-	.	.	2D
8cc	.	.	.
[2b-	.	.	.
.	8e-	.	8C
.	8f	.	8D
=77	=77	=77	=77
4b-]	2.g	2.c	4E
8a	.	.	8F#
8b-	.	.	8G
[2cc	.	.	4A
.	8f#	8d	4G
.	8g	8e-	.
=78	=78	=78	=78
4cc]	2.a	2.d	4F#
8dd	.	.	4D
8cc	.	.	.
2b-	.	.	[2G
.	8g	8e-	.
.	8f	8d	.
=79	=79	=79	=79
2a	2e-	4c	2G]
.	.	4A	.
2aa	[2d	4d	2F#
.	.	[4c	.
=80	=80	=80	=80
2.dd	2d]	4c]	2.G
.	.	8B-	.
.	.	8A	.
.	2g	2B-	.
4ee	.	.	4C#
=81	=81	=81	=81
1ff	2f	2A	4D
.	.	.	4E
.	2d	[2d	4F
.	.	.	4G
=82	=82	=82	=82
1ee	2.a	4d]	2.A
.	.	8c#	.
.	.	8B	.
.	.	2c#	.
.	4g	.	8B-
.	.	.	8A
=83	=83	=83	=83
1dd	1f	2.d	4B-
.	.	.	4F
.	.	.	[2B-
.	.	8c#	.
.	.	8d	.
=84	=84	=84	=84
[1gg	1g	2.e-	4B-]
.	.	.	4G
.	.	.	4c
.	.	4d	4B-
=85	=85	=85	=85
2gg]	1a	4c	4A
.	.	8d	4G
.	.	8e-	.
2ff#	.	4d	2A
.	.	4c	.
=86	=86	=86	=86
4gg	2d	4B-	2G
8ff	.	4A	.
8ee-	.	.	.
4dd	2r	4B-	2r
4ee-	.	4c	.
=87	=87	=87	=87
2.ff	4b-	4d	1r
.	8a	4c	.
.	8g	.	.
.	4f	4d	.
8ee-	4g	4e-	.
8dd	.	.	.
=88	=88	=88	=88
4cc	4a	4f	1r
4dd	4b-	8e-	.
.	.	8d	.
4ee-	4cc	4c	.
4ff	8b-	4d	.
.	8a	.	.
=89	=89	=89	=89
4gg	4g	4e-	2r
8ff	4a	8d	.
8ee-	.	8c	.
4dd	[2b-	4B-	2BB-
8ee-	.	[4F	.
8dd	.	.	.
=90	=90	=90	=90
2.cc	4b-]	8F]	2.F
.	.	8G	.
.	8a	8A	.
.	8g	8B-	.
.	[2a	2c	.
8dd	.	.	4E-
8ee-	.	.	.
=91	=91	=91	=91
[1ff	4a]	2.F	1D
.	8b-	.	.
.	8cc	.	.
.	4b-	.	.
.	4a	4F	.
=92	=92	=92	=92
4ff]	4g	1G	1E-
8ee-	4f#	.	.
8dd	.	.	.
4cc	2g	.	.
4b-	.	.	.
=93	=93	=93	=93
4a	2.dd	1A	1F
8aa	.	.	.
8gg	.	.	.
4ff	.	.	.
[4ee-	4cc	.	.
=94	=94	=94	=94
4ee-]	1b-	1B-	4BB-
2dd	.	.	8C
.	.	.	8D
.	.	.	[2E-
8cc	.	.	.
8b-	.	.	.
=95	=95	=95	=95
1cc	4a	4F	4E-]
.	4g	4c	8F
.	.	.	8G
.	2a	[2f	4F
.	.	.	4E-
=96	=96	=96	=96
[1b-	1dd	4f]	4D
.	.	4e-	8E-
.	.	.	8F
.	.	2d	4G
.	.	.	4F
=97	=97	=97	=97
4b-]	2.g	2r	4E
8a	.	.	8F#
8b-	.	.	8G
[2cc	.	2A	4A
.	8f#	.	4G
.	8g	.	.
=98	=98	=98	=98
4cc]	4a	2.d	4F#
4aa	8cc	.	4E
.	8b-	.	.
[2dd	8a	.	2F#
.	8g	.	.
.	[4a	4c	.
=99	=99	=99	=99
4dd]	4a]	1B	2.G
4ee	4g	.	.
[2ff	2d	.	.
.	.	.	4G#
=100	=100	=100	=100
2ff]	2.a	1c#	4A
.	.	.	8B-
.	.	.	8A
[2ee	.	.	4G
.	4g	.	4A
=101	=101	=101	=101
4ee]	1f	1d	4B-
8dd	.	.	4F
8cc#	.	.	.
[2dd	.	.	4B-
.	.	.	4D
=102	=102	=102	=102
2dd]	1g	4G	2E-
.	.	4A	.
[2gg	.	4B-	2E
.	.	8c	.
.	.	8B-	.
=103	=103	=103	=103
2gg]	1a	4A	2.F
.	.	8B	.
.	.	8c#	.
[2ff	.	4d	.
.	.	4c	8E
.	.	.	8F
=104	=104	=104	=104
2ff]	4d	1B-	[1G
.	8g	.	.
.	8f	.	.
4ee	8g	.	.
.	8a	.	.
4dd	4b-	.	.
=105	=105	=105	=105
2cc#	4e	[1A	4G]
.	2a	.	8F
.	.	.	8E
[2dd	.	.	4F
.	8g	.	4D
.	8f	.	.
=106	=106	=106	=106
2dd]	4e	1A_	2.A
.	4d	.	.
2cc#	2e	.	.
.	.	.	4G
=107	=107	=107	=107
4dd	4d	4A]	1F
4a	8f	8d	.
.	8e	8c#	.
4dd	8f	[2d	.
.	8g	.	.
4cc	[4a	.	.
=108	=108	=108	=108
[1b-	4a]	4d]	1G
.	8g	4B-	.
.	8f#	.	.
.	4g	4e-	.
.	4b-	[4d	.
=109	=109	=109	=109
8b-]	2e	4d]	1A
8a	.	.	.
4ee	.	8c#	.
.	.	8B	.
4aa	4r	2c#	.
[4gg	[4ee	.	.
=110	=110	=110	=110
4gg]	4ee]	2d	[2D
8ff	4a	.	.
8ee	.	.	.
4ff	[2dd	[2A	8D]
.	.	.	8C
4dd	.	.	8BB-
.	.	.	8AA
=111	=111	=111	=111
1bb-	4dd]	4A]	[2GG
.	8ee	4D	.
.	8ff	.	.
.	4ee	[2G	8GG]
.	.	.	8AA
.	4dd	.	8BB-
.	.	.	8GG
=112	=112	=112	=112
2ee	4cc#	4G]	[1AA
.	2a	8F	.
.	.	8E	.
[2dd	.	4F	.
.	8g	4D	.
.	8f	.	.
=113	=113	=113	=113
2dd]	4g	4E	1AA]
.	4.e	8F	.
.	.	8G	.
2cc#	.	[2A	.
.	8f	.	.
.	[4g	.	.
=114	=114	=114	=114
4dd	4g]	4A]	[1D
2a	8f	4d	.
.	8g	.	.
.	8f	2B-	.
.	8e	.	.
4g	8d	.	.
.	8c#	.	.
=115	=115	=115	=115
4f	8d	4A	4D]
.	8A	.	.
2.r	8d	2.r	2.r
.	8e	.	.
.	8f	.	.
.	8e	.	.
.	8d	.	.
.	8f	.	.
=116	=116	=116	=116
1r	8e	1r	1r
.	8A	.	.
.	8e	.	.
.	8f	.	.
.	8g	.	.
.	16f	.	.
.	16e	.	.
.	8f	.	.
.	8g	.	.
=117	=117	=117	=117
1r	8a	1r	1r
.	8g	.	.
.	8f	.	.
.	8g	.	.
.	[2a	.	.
=118	=118	=118	=118
1r	8a]	1r	1r
.	16g	.	.
.	16f#	.	.
.	8g	.	.
.	8a	.	.
.	[2b-	.	.
=119	=119	=119	=119
1r	8b-]	1r	1r
.	8a	.	.
.	8g	.	.
.	8f	.	.
.	8e	.	.
.	8d	.	.
.	8e	.	.
.	8g	.	.
=120	=120	=120	=120
1r	8f	1r	1r
.	8e	.	.
.	8d	.	.
.	8c	.	.
.	8B	.	.
.	8A	.	.
.	8B	.	.
.	8d	.	.
=121	=121	=121	=121
4r	8c	1r	1r
.	8B	.	.
8cc	8A	.	.
8dd	8G#	.	.
8cc	4A	.	.
8b	.	.	.
8a	4B	.	.
8g#	.	.	.
=122	=122	=122	=122
8a	4.c	1r	1r
8e	.	.	.
8a	.	.	.
8b	8d	.	.
8cc	4e	.	.
8b	.	.	.
8a	4f#	.	.
8cc	.	.	.
=123	=123	=123	=123
8b	4g	1r	1r
8e	.	.	.
8b	2g#	.	.
8cc	.	.	.
8dd	.	.	.
16cc	.	.	.
16b	.	.	.
8cc	[4a	.	.
8dd	.	.	.
=124	=124	=124	=124
8ee	8a]	1r	1r
8dd	8f	.	.
8cc	8e	.	.
8dd	8d	.	.
[2ee	8c	.	.
.	8B	.	.
.	8A	.	.
.	8G	.	.
=125	=125	=125	=125
8ee]	8F	1r	1r
16dd	8g	.	.
16cc#	.	.	.
8dd	8f	.	.
8ee	8e	.	.
[2ff	8d	.	.
.	8c	.	.
.	8B	.	.
.	8A	.	.
=126	=126	=126	=126
8ff]	4G#	1r	1r
8ee	.	.	.
8dd	2A	.	.
8cc	.	.	.
8b	.	.	.
8a	.	.	.
8b	4G#	.	.
8dd	.	.	.
=127	=127	=127	=127
8cc	4A	1r	1r
8aa	.	.	.
8gg	4B	.	.
8ff	.	.	.
8ee	4c	.	.
8dd	.	.	.
8ee	4c#	.	.
8gg	.	.	.
=128	=128	=128	=128
8ff	4d	1r	4r
8ee	.	.	.
8dd	2a	.	8F
8cc#	.	.	8G
4dd	.	.	8F
.	.	.	8E
4ee	[4g	.	8D
.	.	.	8C#
=129	=129	=129	=129
2.a	4g]	1r	8D
.	.	.	8AA
.	8f	.	8D
.	8e	.	8E
.	4d	.	8F
.	.	.	8E
4b	[4g	.	8D
.	.	.	8F
=130	=130	=130	=130
4cc	8g]	1r	8E
.	8f	.	8AA
2cc#	8g	.	8E
.	8a	.	8F
.	8b-	.	8G
.	16a	.	16F
.	16g	.	16E
8dd	8a	.	8F
8ee	8b-	.	8G
=131	=131	=131	=131
8ff	4c#	1r	8A
8bb-	.	.	8G
8aa	4.d	.	8F
8gg	.	.	8G
8ff	.	.	[2A
8ee	8c#	.	.
8dd	8f	.	.
8cc	8e	.	.
=132	=132	=132	=132
8b-	[2d	1r	8A]
8ccc	.	.	16G
.	.	.	16F#
8bb-	.	.	8G
8aa	.	.	8A
8gg	8d]	.	[2B-
8ff	8a	.	.
8ee	8g	.	.
8dd	8f	.	.
=133	=133	=133	=133
4cc#	4e	1r	8B-]
.	.	.	8A
2dd	4a	.	8G
.	.	.	8F
.	4g	.	8E
.	.	.	8D
4cc#	4b-	.	8E
.	.	.	8G
=134	=134	=134	=134
4dd	2.a	1r	8F
.	.	.	8E
4ee	.	.	8D
.	.	.	8C
2ff	.	.	8BB
.	.	.	8AA
.	4g#	.	8BB
.	.	.	8D
=135	=135	=135	=135
4ee	2a	4r	2C
4aa	.	8c	.
.	.	8d	.
4ee	4r	8c	4r
.	.	8B	.
[4dd	4e	8A	4E
.	.	8G#	.
=136	=136	=136	=136
4dd]	2e	8A	2AA
.	.	8E	.
8cc	.	8A	.
8dd	.	8B	.
4ee	4r	8c	4r
.	.	8B	.
[4ff	4a	8A	[4A
.	.	8c	.
=137	=137	=137	=137
4ff]	4.dd	8B	4A]
.	.	8E	.
[2ee	.	8B	2G#
.	8cc	8c	.
.	4b	8d	.
.	.	16c	.
.	.	16B	.
8ee]	8a	8c	[4A
8b	8g#	8d	.
=138	=138	=138	=138
4cc	4a	8e	8A]
.	.	8d	8F
2.r	2r	8c	8E
.	.	8d	8D
.	.	[2e	8C
.	.	.	8BB
.	4cc	.	8AA
.	.	.	8GG
=139	=139	=139	=139
1r	2.a	8e]	8FF
.	.	16d	8G
.	.	16c#	.
.	.	8d	8F
.	.	8e	8E
.	.	[2f	8D
.	.	.	8C
.	8g#	.	8BB
.	8a	.	8AA
=140	=140	=140	=140
1r	8b	8f]	4GG#
.	8ee	8e	.
.	2a	8d	4AA
.	.	8c	.
.	.	8B	4E
.	.	8A	.
.	4g#	8B	4EE
.	.	8d	.
=141	=141	=141	=141
1r	4a	2c	8AA
.	.	.	8A
.	2.r	.	8G
.	.	.	8F
.	.	2c#	8E
.	.	.	8D
.	.	.	8E
.	.	.	8G
=142	=142	=142	=142
8r	1r	2.d	4F
8aa	.	.	.
8gg	.	.	4G
8ff	.	.	.
8ee	.	.	2A
8dd	.	.	.
8ee	.	[4c	.
8gg	.	.	.
=143	=143	=143	=143
4ff#	8r	8c]	2D
.	8dd	8B-	.
2gg	8cc	8A	.
.	8b-	8G	.
.	8a	[2d	4r
.	8g	.	.
[4ff	8a	.	4D
.	8cc	.	.
=144	=144	=144	=144
8ff]	4b	8d]	2G
8gg	.	8e	.
8ff	2cc	8d	.
8ee	.	8c	.
8dd	.	4g	4r
8cc	.	.	.
8dd	[4b-	4r	4G
8ff	.	.	.
=145	=145	=145	=145
4ee	8b-]	8r	2C
.	8g	8c	.
2ff	4a	8B-	.
.	.	8A	.
.	4b-	8G	4r
.	.	8F	.
8ee	[4g	8G	4C
8dd	.	8B-	.
=146	=146	=146	=146
4ee	8g]	4.A	4C#
.	8a	.	.
2.r	8g	.	2D
.	8f	8A	.
.	8e	8G	.
.	8d	8F	.
.	8e	4E	4C#
.	8g	.	.
=147	=147	=147	=147
4r	8f	4D	2.D
.	8a	.	.
8ff	4d	4A	.
8gg	.	.	.
8ff	2r	2B-	.
8ee	.	.	.
8dd	.	.	4E
8cc#	.	.	.
=148	=148	=148	=148
8dd	1r	4A	2F
8a	.	.	.
8dd	.	8B	.
8ee	.	8c#	.
8ff	.	[2d	2D
8ee	.	.	.
8dd	.	.	.
8ff	.	.	.
=149	=149	=149	=149
8ee	1r	4d]	2.A
8a	.	.	.
8ee	.	8c#	.
8ff	.	8d	.
8gg	.	[2e	.
16ff	.	.	.
16ee	.	.	.
8ff	.	.	4G
8gg	.	.	.
=150	=150	=150	=150
8aa	1r	8e]	1F
8gg	.	8A	.
8ff	.	4.d	.
8gg	.	.	.
[2aa	.	.	.
.	.	8c	.
.	.	8B-	.
.	.	8A	.
=151	=151	=151	=151
8aa]	1r	8B-	1G
16gg	.	8d	.
16ff#	.	.	.
8gg	.	4.e-	.
8aa	.	.	.
[2bb-	.	.	.
.	.	8d	.
.	.	8c#	.
.	.	8d	.
=152	=152	=152	=152
8bb-]	1r	4c#	1A
8aa	.	.	.
8gg	.	2d	.
8ff	.	.	.
8ee	.	.	.
8dd	.	.	.
8ee	.	[4c	.
8gg	.	.	.
=153	=153	=153	=153
8ff	1r	4c]	2D
8ee	.	.	.
8dd	.	8B	.
8cc	.	8A	.
8b	.	8G#	2E
8a	.	8F#	.
8b	.	8G#	.
8dd	.	8B	.
=154	=154	=154	=154
4cc	1r	8A	4AA
.	.	8e	.
8b	.	8d	2.r
8a	.	8c	.
8g#	.	8B	.
8f#	.	8A	.
8g#	.	8B	.
8b	.	8d	.
=155	=155	=155	=155
4e	1r	4c	8r
.	.	.	8E
2a	.	4e	8D
.	.	.	8C
.	.	4d	8BB
.	.	.	8AA
4g#	.	4f	8BB
.	.	.	8D
=156	=156	=156	=156
4a	4r	4e	8C
.	.	.	8BB
2ee	8cc	2.r	8AA
.	8dd	.	8GG#
.	8cc	.	4AA
.	8b	.	.
[4dd	8a	.	4BB
.	8g#	.	.
=157	=157	=157	=157
4dd]	8a	2r	4C
.	8e	.	.
8cc	8a	.	2F
8dd	8b	.	.
4ee	8cc	2A	.
.	8b	.	.
4dd#	8a	.	4F#
.	8cc	.	.
=158	=158	=158	=158
4ee	8b	2..e	4G
.	8e	.	.
2.r	8b	.	2G#
.	8cc	.	.
.	8dd	.	.
.	16cc	.	.
.	16b	.	.
.	8cc	.	[4A
.	8dd	8d	.
=159	=159	=159	=159
1r	8ee	1c	8A]
.	8dd	.	8E
.	8cc	.	8A
.	8dd	.	8B
.	[2ee	.	8c
.	.	.	8B
.	.	.	8A
.	.	.	8G
=160	=160	=160	=160
1r	8ee]	1d	8F#
.	16dd	.	8A
.	16cc#	.	.
.	8dd	.	8B
.	8ee	.	8c#
.	[2ff	.	8d
.	.	.	8c
.	.	.	8B
.	.	.	8A
=161	=161	=161	=161
1r	8ff]	1e	4G#
.	8ee	.	.
.	8dd	.	2A
.	8cc	.	.
.	8b	.	.
.	8a	.	.
.	8b	.	4G#
.	8dd	.	.
=162	=162	=162	=162
1r	[1cc	8A	4A
.	.	8a	.
.	.	8g	4B
.	.	8f	.
.	.	8e	4c
.	.	8d	.
.	.	8e	4A
.	.	8g	.
=163	=163	=163	=163
1r	8cc]	[1f	4D
.	8dd	.	.
.	8cc	.	4E
.	8b-	.	.
.	8a	.	4F
.	8g	.	.
.	8a	.	4D
.	8cc	.	.
=164	=164	=164	=164
1r	[1b-	8f]	4G
.	.	8g	.
.	.	8f	4A
.	.	8e	.
.	.	8d	4B-
.	.	8c	.
.	.	8d	4G
.	.	8f	.
=165	=165	=165	=165
1r	8b-]	4e	4C
.	8cc	.	.
.	8b-	2.r	4D
.	8a	.	.
.	8g	.	4E
.	8f	.	.
.	8g	.	4C
.	8b-	.	.
=166	=166	=166	=166
1r	8a	1r	4F
.	8b-	.	.
.	8a	.	4G
.	8g	.	.
.	8f	.	4A
.	8e	.	.
.	8f	.	4F
.	8a	.	.
=167	=167	=167	=167
1r	8d	4r	2BB-
.	8e	.	.
.	4.f	8A	.
.	.	8B-	.
.	.	8A	2C
.	8e	8G	.
.	[4b-	8F	.
.	.	8E	.
=168	=168	=168	=168
1r	4b-]	8F	2FF
.	.	8C	.
.	8a	8F	.
.	8g	8G	.
.	8f	8A	4r
.	8a	8G	.
.	[4d	8F	4F
.	.	8A	.
=169	=169	=169	=169
2r	8d]	8G	4E
.	8g	8C	.
.	4c	8G	4E-
.	.	8A	.
2f	2d	8B-	2D
.	.	16A	.
.	.	16G	.
.	.	8A	.
.	.	8B-	.
=170	=170	=170	=170
2.cc	4e	8c	[2A
.	.	8B-	.
.	8f	8A	.
.	8g	8B-	.
.	4a	[2c	8A]
.	.	.	8G
4b-	[4g	.	8F
.	.	.	8E
=171	=171	=171	=171
1a	4g]	8c]	[2F
.	.	16B-	.
.	.	16A	.
.	8f	8B-	.
.	8e	8c	.
.	[2f	[2d	8F]
.	.	.	8D
.	.	.	8E
.	.	.	8F
=172	=172	=172	=172
1b-	8f]	8d]	4G
.	8e-	8c	.
.	4.f	8B-	4D
.	.	8A	.
.	.	8G	[2E-
.	8d	8F	.
.	8e-	8G	.
.	8g	8B-	.
=173	=173	=173	=173
1cc	4.c	[1A	8E-]
.	.	.	8F
.	.	.	8E-
.	8d	.	8D
.	[2e-	.	8C
.	.	.	8BB-
.	.	.	8C
.	.	.	8E-
=174	=174	=174	=174
[2f	4e-]	8A]	[2D
.	.	8F	.
.	8d	8G	.
.	8c	8A	.
8f]	[2d	[2B-	8D]
8f#	.	.	8D
8g	.	.	8E
8a	.	.	8F#
=175	=175	=175	=175
[2b-	8d]	8B-]	[2G
.	8d	8c	.
.	8e	8B-	.
.	8f#	8A	.
8b-]	[2g	[2G	8G]
8b	.	.	8F
8cc	.	.	8E-
8dd	.	.	8D
=176	=176	=176	=176
[1ee-	8g]	4G]	2C
.	8dd	.	.
.	8cc	4G	.
.	8b-	.	.
.	8a	[2c	4r
.	8g	.	.
.	8a	.	4C
.	8cc	.	.
=177	=177	=177	=177
4ee-]	2.f#	8c]	2D
.	.	8e-	.
4a	.	8d	.
.	.	8c	.
[2dd	.	8B-	4r
.	.	8A	.
.	4f#	8B-	4D
.	.	8d	.
=178	=178	=178	=178
2dd]	8g	4G	4E-
.	8a	.	.
.	8g	8B-	2E
.	8f	8A	.
2cc#	8e	8G	.
.	8d	8F	.
.	8e	4E	4AA
.	8g	.	.
=179	=179	=179	=179
2dd	4f#	8D	4D
.	.	8d	.
.	2g	8c	2.r
.	.	8B-	.
[2cc	.	8A	.
.	.	8G	.
.	8f#	8A	.
.	8a	8c	.
=180	=180	=180	=180
4cc]	8d	8B-	4r
.	8f#	8e-	.
8b-	8g	2d	8BB-
8a	8f#	.	8C
4b-	4g	.	8BB-
.	.	.	8AA
4ee-	[4cc	4r	8GG
.	.	.	8FF#
=181	=181	=181	=181
4dd	4cc]	1r	8GG
.	.	.	8DD
8ee	4b-	.	8GG
8ff#	.	.	8AA
[2gg	8r	.	8BB-
.	8ff	.	8AA
.	8ee-	.	8GG
.	8dd	.	8BB-
=182	=182	=182	=182
4gg]	8cc	2.r	8AA
.	8b	.	8DD
4.ff	8cc	.	8AA
.	8dd	.	8BB
.	2g	.	8C
8ee-	.	.	16BB
.	.	.	16AA
8dd	.	[4F	8BB
8cc	.	.	8C
=183	=183	=183	=183
8b	2.dd	8F]	8D
8a	.	8E-	8C
4g	.	8D	8BB
.	.	8E-	8C
2dd	.	8F	[2D
.	.	8G	.
.	4cc	8A-	.
.	.	8F	.
=184	=184	=184	=184
2.gg	1b	[2G	8D]
.	.	.	16C
.	.	.	16BB
.	.	.	8C
.	.	.	8D
.	.	8G]	[2E-
.	.	8G	.
4ff	.	8B	.
.	.	8d	.
=185	=185	=185	=185
1ee-	1cc	8g	8E-]
.	.	8b-	8D
.	.	8a-	8C
.	.	8g	8BB-
.	.	4.f#	8AA
.	.	.	8GG
.	.	.	8AA
.	.	8g	8C
=186	=186	=186	=186
1ff	1dd	8a-	4BB
.	.	8G	.
.	.	8F	2C
.	.	8E-	.
.	.	8D	.
.	.	8C	.
.	.	8D	[4BB-
.	.	8F	.
=187	=187	=187	=187
1gg	4g	1E	8BB-]
.	.	.	8C
.	4a	.	8BB-
.	.	.	8AA
.	[2b-	.	8GG
.	.	.	8FF#
.	.	.	8GG
.	.	.	8BB-
=188	=188	=188	=188
[1cc	4b-]	4F#	8AA
.	.	.	8D
.	8a	2.r	8C
.	8g	.	8BB-
.	8f#	.	8AA
.	8e	.	8GG
.	8f#	.	8AA
.	8a	.	8C
=189	=189	=189	=189
8cc]	2d	8r	2BB-
8f#	.	8D	.
8g	.	8E	.
8a	.	8F#	.
8b-	2r	[2G	4r
8cc	.	.	.
8b-	.	.	4GG
8g	.	.	.
=190	=190	=190	=190
[1ee-	8r	8G]	2C
.	8dd	8G	.
.	8cc	8A	.
.	8b-	8B-	.
.	8a	8c	4r
.	8g	8d	.
.	8a	8c	[4C
.	8cc	8B-	.
=191	=191	=191	=191
8ee-]	1f#	4A	8C]
8ee-	.	.	8AA
8dd	.	2.r	8BB-
8cc	.	.	8C
8b-	.	.	8D
8a	.	.	8E-
8b-	.	.	8D
8dd	.	.	8BB-
=192	=192	=192	=192
4.g	8g	4r	4E-
.	8f	.	.
.	4e-	4B-	4C
8a	.	.	.
4.f#	4d	8A	2D
.	.	8G	.
.	[4c	4A	.
8g	.	.	.
=193	=193	=193	=193
2g	4c]	2G	2GG
.	4B-	.	.
2r	2r	2B-	2r
=194	=194	=194	=194
1r	1r	2A	1r
.	.	2c	.
=195	=195	=195	=195
1r	2r	4.B	1r
.	.	8c#	.
.	2f	[2d	.
=196	=196	=196	=196
1r	2e	4.d]	1r
.	.	16c#	.
.	.	16B	.
.	2g	2c#	.
=197	=197	=197	=197
1r	4.f#	2d	1r
.	8g#	.	.
.	[2a	4r	.
.	.	4d#	.
=198	=198	=198	=198
1r	4.a]	4e	1r
.	.	4B	.
.	16g#	.	.
.	16f#	.	.
.	2g#	4e	.
.	.	4d	.
=199	=199	=199	=199
1r	4a	2c	1r
.	4e	.	.
.	4a	4r	.
.	4g	4c#	.
=200	=200	=200	=200
1r	2f	4d	1r
.	.	4A	.
.	4r	4d	.
.	4f#	4c	.
=201	=201	=201	=201
2r	4g	4.B-	1r
.	4d	.	.
.	.	8A	.
2b-	4g	8G	.
.	.	8A	.
.	4f	8B-	.
.	.	8G	.
=202	=202	=202	=202
2a	4e	8c	1r
.	.	8B-	.
.	8f#	8A	.
.	8g	8G	.
2cc	[2a	8F#	.
.	.	8E	.
.	.	8F#	.
.	.	8D	.
=203	=203	=203	=203
4.b	4a]	4G	2r
.	4g	4E	.
8cc#	.	.	.
[2dd	4a	4F	2F
.	4d	8G	.
.	.	8A	.
=204	=204	=204	=204
4.dd]	4.g	8B-	2E
.	.	8A	.
.	.	8G	.
16cc#	8f	8A	.
16b	.	.	.
2cc#	2e	8B-	2G
.	.	8E	.
.	.	[4A	.
=205	=205	=205	=205
4dd	4d	4A]	4.F#
2r	2.r	2d	.
.	.	.	8G#
.	.	.	[2A
4dd#	.	4c	.
=206	=206	=206	=206
4ee	2.r	4B	4.A]
4b	.	[2.e	.
.	.	.	16G#
.	.	.	16F#
4ee	.	.	2G#
4dd	[4b	.	.
=207	=207	=207	=207
2cc	4b]	4e]	2A
.	4e	2.r	.
2cc#	4a	.	4r
.	4g	.	4A
=208	=208	=208	=208
4dd	2.f	1r	4B-
4a	.	.	4F
[2dd	.	.	4B-
.	8g	.	4A
.	8f	.	.
=209	=209	=209	=209
4dd]	[2e	1r	4G#
8cc	.	.	4E
8b	.	.	.
[2cc	8e]	.	4A
.	8d	.	.
.	8e-	.	4G
.	8c	.	.
=210	=210	=210	=210
4cc]	2.d	2r	4F#
8b-	.	.	4D
8a	.	.	.
4b-	.	2B-	[2G
4g	8e	.	.
.	8d	.	.
=211	=211	=211	=211
4a	4c#	2A	2G]
2aa	4e	.	.
.	[2a	2c	2F#
[4dd	.	.	.
=212	=212	=212	=212
4dd]	8a]	4.B	2G
.	8d	.	.
4ee	4g	.	.
.	.	8c#	.
2ff	2r	[2d	4r
.	.	.	4G#
=213	=213	=213	=213
[2ee	2r	4.d]	4A
.	.	.	4E
.	.	16c#	.
.	.	16B	.
8ee]	2e	2c#	4A
8cc#	.	.	.
8dd	.	.	4G
8ee	.	.	.
=214	=214	=214	=214
2.a	2f	4.d	4F
.	.	.	4D
.	.	8c	.
.	2d	4B	[2G
8g	.	4A	.
8f#	.	.	.
=215	=215	=215	=215
[1g	4.e-	[2B-	8G]
.	.	.	8A
.	.	.	8G
.	8d	.	8F
.	[2c#	8B-]	2E
.	.	8A	.
.	.	8B-	.
.	.	8G	.
=216	=216	=216	=216
2g]	2c#]	[2A	8F
.	.	.	8G
.	.	.	8F
.	.	.	8E
8f	[2d	8A]	2D
8e	.	8B-	.
4f	.	8A	.
.	.	8G#	.
=217	=217	=217	=217
4e	4d]	4A	4AA
4r	4c#	2r	2A
2b-	4d	.	.
.	4e	4B-	4G
=218	=218	=218	=218
2a	4f	4c	2F
.	8e	4d	.
.	8f	.	.
2cc	[2g	4e	2E
.	.	8f	.
.	.	8e	.
=219	=219	=219	=219
4.b	8g]	[2d	2G
.	8f#	.	.
.	8g	.	.
8cc#	8b-	.	.
[2dd	[2a	8d]	4.F#
.	.	8c#	.
.	.	8d	.
.	.	8f	8G#
=220	=220	=220	=220
4.dd]	2a]	8e	[1A
.	.	8d	.
.	.	2e	.
16cc#	.	.	.
16b	.	.	.
8cc#	4g	.	.
8dd#	.	.	.
4dd#	4f#	4B	.
=221	=221	=221	=221
4ee	[1e	1B	4.A]
4b	.	.	.
.	.	.	16G#
.	.	.	16F#
4ee	.	.	2G#
4dd	.	.	.
=222	=222	=222	=222
2cc	4e]	4.A	4A
.	4e	.	4r
.	.	16G	.
.	.	16F	.
2cc#	4a	4.E	2AA
.	[4g	.	.
.	.	16D	.
.	.	16E	.
=223	=223	=223	=223
[2dd	8g]	4D	2BB-
.	8f#	.	.
.	8g	8E	.
.	8a	8F#	.
8dd]	4b-	4G	2GG
8ff	.	.	.
8ee-	4b	4F	.
8dd	.	.	.
=224	=224	=224	=224
8cc	2..cc	8E-	4.AA-
8gg	.	8D	.
8ff	.	4C	.
8ee-	.	.	8GG
8dd	.	4D	[2FF#
8cc	.	.	.
[4dd-	.	[4E-	.
.	8b-	.	.
=225	=225	=225	=225
8dd-]	4.a	8E-]	2FF#]
8b	.	8D	.
2cc	.	4.E-	.
.	8a-	.	.
.	[2g	.	2GG
.	.	8D	.
4b	.	[4F	.
=226	=226	=226	=226
4.cc	2g]	4F]	2C
.	.	2E	.
16b-	.	.	.
16a	.	.	.
8g	2b-	.	4r
8e	.	.	.
[4ee	.	[4G	4C#
=227	=227	=227	=227
8ee]	2a	4G]	2D
16dd	.	.	.
16cc#	.	.	.
8dd	.	4.F#	.
16cc	.	.	.
16b	.	.	.
4a	2cc	.	4r
.	.	8G#	.
4r	.	[4A	4D#
=228	=228	=228	=228
1r	4.b	2A_	8E
.	.	.	16D
.	.	.	16E
.	.	.	4.F
.	8cc#	.	.
.	[2dd	8A]	.
.	.	16G#	8BB
.	.	16F#	.
.	.	[4G#	8E
.	.	.	8D
=229	=229	=229	=229
2.r	4.dd]	4G#]	8C#
.	.	.	8BB
.	.	8A]	4AA
.	16cc#	8E	.
.	16b	.	.
.	2cc#	8A	4r
.	.	16B-	.
.	.	16A	.
[4aa	.	8G	4AA
.	.	8A	.
=230	=230	=230	=230
8aa]	8dd	8B-	[1D
16gg	16ee	8d	.
16aa	16ff	.	.
4.bb-	2gg	8G	.
.	.	8A	.
.	.	8B-	.
8ee	.	8G	.
8aa	4cc#	8E	.
8gg	.	16F	.
.	.	16G	.
=231	=231	=231	=231
8ff	8dd	4A	8D]
16ee	8a	.	16E
16dd	.	.	16F
8cc#	4b-	2G	8E
8dd	.	.	8D
8ee	[2a	.	8C#
16dd	.	.	8AA
16ee	.	.	.
8ff	.	[4F	8D
8ee	.	.	8C
=232	=232	=232	=232
4.dd	8a]	8F]	4BB-
.	8g	16E	.
.	.	16D	.
.	8f	2A	4AA
8cc#	8e	.	.
8dd	4d	.	2BB-
16ee	.	.	.
16ff	.	.	.
8ee	4r	4G	.
8dd	.	.	.
=233	=233	=233	=233
4cc#	8r	4A	4AA
.	8e	.	.
4.r	8f	2.r	2.r
.	8g	.	.
.	8f	.	.
8ee	8e	.	.
8ff	8d	.	.
8gg	8c#	.	.
=234	=234	=234	=234
8ff	8d	1r	2r
8ee	8A	.	.
8dd	8d	.	.
8cc#	8e	.	.
[2dd	8f	.	2D
.	8e	.	.
.	8d	.	.
.	8f	.	.
=235	=235	=235	=235
4dd]	8e	2r	2.A
.	8A	.	.
8cc#	8e	.	.
8dd	8f	.	.
[2ee	8g	2B-	.
.	16f	.	.
.	16e	.	.
.	8f	.	4G
.	8g	.	.
=236	=236	=236	=236
4ee]	8a	2A	1F
.	8g	.	.
8dd	8f	.	.
8ee	8g	.	.
8ff	[2a	2c	.
8gg	.	.	.
8aa	.	.	.
8ff	.	.	.
=237	=237	=237	=237
4dd	8a]	4.B	1G
.	16g	.	.
.	16f#	.	.
8ee	8g	.	.
8ff#	8a	8c#	.
8gg	[2b-	[2d	.
8aa	.	.	.
8bb-	.	.	.
8gg	.	.	.
=238	=238	=238	=238
4ee	8b-]	4.d]	1A
.	8a	.	.
2.r	8g	.	.
.	8f	16c#	.
.	.	16B	.
.	8e	2c#	.
.	8d	.	.
.	8e	.	.
.	8g	.	.
=239	=239	=239	=239
1r	4f	8d	4D
.	.	8e	.
.	2.r	8d	2.r
.	.	8c	.
.	.	8B	.
.	.	8A	.
.	.	8B	.
.	.	8d	.
==	==	==	==
*-	*-	*-	*-
!!!RWG1: This file contains only pitch and duration data.
!!!RWG2: Transposing instruments are not transposed.
!!!RWG3: Spines may have incompatible meters.
!!!RWG4: Durations of rests and tied notes may be interpreted.
!!!RWG: Key is interpreted using the Humdrum key tool.
!!!AFT: stage1
!!!END: 1997/04/15/
!!format changes:
!!content changes:
!!public access: complete
!!!KEY: 3584464208
!!!EMD: Converted from MuseData to Humdrum Dec 19, 2000, by Andreas Kornstaedt using muse2kern.
